X:1
T:At Zanarkand
T:At Zanarkand
T:Original title (japanese): ザナルカンドにて (To Zanarkand) From the original sound track of Final Fantasy X HD Remastered
T:Nobuo Uematsu
C:Nobuo Uematsu
%%score { 1 | 2 }
L:1/8
Q:1/4=90
M:3/4
K:G
V:1 treble nm="Piano" snm="Pno."
V:2 treble 
V:1
!8va(! [be']e gb e'[d'f'] | [e'g']6 | [ad']d fa d'[c'e'] | [d'f']6 | b2 b2 b2 | b2 a3 d' | %6
 f3 ^c df | b6 | e'2 e'2 e'2 | e'2 d'3 g' | c'6 | =fc fg ac'!8va)! |: [Ge]3 B ef | [Bg]2 f2 e2 | %14
 [Fd]3 [Ge] [Ad]2 | [DB]6 | [Ge]3 B ef | [Bg]2 f2 g2 | [fa]3 [eg] [fa]2 | [gb]6 | [Ge]3 B ef | %21
 [Bg]2 f2 e2 | [Fd]3 [Ge] [Ad]2 | [DB]4 GA | [DEB]2 [EB]2 [EB]2 | [FB]2 A2 d2 | [CEG]3 G FD | E6- | %28
 E6 |!8va(! a4 e'2 | [ae']2 d'2 [=fc']2 | b4 g'2 | !arpeggio![be'g']6 | b4 f'2 | %34
 !arpeggio![a^c'f']6 | [ea]4 e'2 | !arpeggio![fbe']2 ^d'2 z2!8va)! | [DB]4 [Bf]2 | %38
 [Af]2 [Ge]2 [Fd]2 | [E^c]4 [ca]2 | [^cfa]6 | ^g2 e2 ^c2 | [GB]4 f2 | A3 F [EA]2 | [FB]6- | %45
 [FB]6 :| %46
V:2
!ped! E4 D2!ped-up! |!ped! C6!ped-up! |!ped! D4 C2!ped-up! |!ped! B,6!ped-up! |!ped! CG dc ef | %5
 [ceg]6!ped-up! |!ped! B,F B z z2 | z6!ped-up! |!ped! A,E BA cd | [Ace]6!ped-up! | %10
!ped! =F,C =FG Ac | z6!ped-up! |:[K:bass]!ped! E,B, EF GA!ped-up! |!ped! CG- GF EC!ped-up! | %14
!ped! D,A, DE FC!ped-up! |!ped! G,,D, G,A, B,D!ped-up! |!ped! E,B, EF GA!ped-up! | %17
!ped! CG- GF EC!ped-up! |!ped! D,A, DE FC!ped-up! |!ped! G,,D, G,A, B,D!ped-up! | %20
!ped! E,B, EF GA!ped-up! |!ped! CG- GF EC!ped-up! |!ped! D,A, DE FC!ped-up! | %23
!ped! G,,D, G,A, B,F,!ped-up! |!ped! C,G, CG, B,G,!ped-up! | D,6 | %26
!ped! A,,E, A,2 [B,,F,]2!ped-up! |[K:treble]!ped! C,G, CE Gc | eE Gc eg!ped-up! | %29
!ped! A,E AB ce!ped-up! |!ped! =F,C =FG Ac!ped-up! |!ped! G,D GA Bd!ped-up! | %32
!ped! E,B, EF GB!ped-up! |!ped! B,F B^c de!ped-up! | f6 |!ped! A,E AB cA!ped-up! | %36
!ped! B,4 B,A,!ped-up! |[K:bass]!ped! B,,F, B,^C DF,!ped-up! |!ped! G,,D, G,A, B,D,!ped-up! | %39
!ped! A,,E, A,B, ^CE,!ped-up! |!ped! F,,^C, F,^G, A,B,!ped-up! |!ped! [^C,^G,]6!ped-up! | %42
!ped! G,,4 [G,B,D]2!ped-up! |!ped! [F,A,^C]4 [F,A,]2!ped-up! |!ped! B,,,B,, ^D,F, B,^D | %45
 F6!ped-up! :| %46

